assets/images/devices2.svg

<?xml version="1.0" encoding="UTF-8" standalone="no"?>
<svg width="198px" height="93px" viewBox="0 0 198 93" version="1.1" xmlns="http://www.w3.org/2000/svg" xmlns:xlink="http://www.w3.org/1999/xlink">
    <!-- Generator: sketchtool 46 (44423) - http://www.bohemiancoding.com/sketch -->
    <title>800AD539-4DB1-4290-8DD7-16027C10BA18</title>
    <desc>Created with sketchtool.</desc>
    <defs>
        <polygon id="path-1" points="0.0092578125 53 0.0092578125 0.150680233 78.9998457 0.150680233 78.9998457 53"></polygon>
    </defs>
    <g id="03-Productos-y-servicios" stroke="none" stroke-width="1" fill="none" fill-rule="evenodd">
        <g id="3.1--Empress-GRP" transform="translate(-1009.000000, -253.000000)">
            <g id="TwoDevices" transform="translate(1009.000000, 253.000000)">
                <path d="M193.864655,32.5133644 L193.864655,7.31579011 C193.864655,3.28247951 190.571489,0 186.523913,0 L101.339606,0 C97.2920291,0 94,3.28247951 94,7.31579011 L94,58.6466464 C94,62.679957 97.2931653,65.9621534 101.339606,65.9621534 L125.48191,65.9621534 L122.717912,68.9272567 L118.57717,68.9272567 C117.636428,68.9272567 116.872927,69.6871476 116.872927,70.6259696 C116.872927,71.5639422 117.636428,72.3246825 118.57717,72.3246825 L142.291426,72.3246825 L142.291426,88.7079188 C142.291426,91.0747921 144.222901,93 146.597479,93 L164.919226,93 C167.29352,93 169.22528,91.0747921 169.22528,88.7079188 L169.22528,85.2575498 L192.162684,85.2575498 C195.381431,85.2575498 198,82.646345 198,79.4357777 L198,38.0806128 C198,35.4617637 196.255707,33.2421122 193.864655,32.5133644 Z M194.645161,38.6760702 L194.645161,39.2168675 L155.505376,39.2168675 L155.505376,38.6760702 C155.505376,37.1209072 156.594539,35.8554217 157.933017,35.8554217 L192.21979,35.8554217 C193.557134,35.8554217 194.645161,37.1209072 194.645161,38.6760702 Z M165.015125,53.0623161 L155.505376,53.0623161 L155.505376,42.5783133 L194.645161,42.5783133 L194.645161,76.1927711 L169.315047,76.1927711 L169.315047,57.3521267 C169.315047,54.9867885 167.386038,53.0623161 165.015125,53.0623161 Z M166.688172,59.3855422 L146.55914,59.3855422 L146.55914,56.9856397 C146.55914,56.4555737 146.961038,56.0240964 147.457301,56.0240964 L165.790011,56.0240964 C166.285137,56.0240964 166.688172,56.4555737 166.688172,56.9856397 L166.688172,59.3855422 Z M190.172043,8.96385542 L190.172043,32.441435 L157.624452,32.441435 C154.412505,32.441435 151.799257,35.0787131 151.799257,38.3201947 L151.799257,52.815073 L146.42259,52.815073 C144.056131,52.815073 142.130267,54.756359 142.128284,57.1445783 L97.3548387,57.1445783 L97.3548387,8.96385542 L190.172043,8.96385542 Z M146.55914,81.7951807 L166.688172,81.7951807 L166.688172,61.626506 L146.55914,61.626506 L146.55914,81.7951807 Z M100.870536,3.36144578 L185.538066,3.36144578 C187.085447,3.36144578 188.421937,4.27926912 189.053763,5.60240964 L97.3548387,5.60240964 C97.9877941,4.27926912 99.3231551,3.36144578 100.870536,3.36144578 Z M97.3548387,59.3855422 L142.086022,59.3855422 L142.086022,62.746988 L101.007504,62.746988 C99.3558266,62.746988 97.9412025,61.3546777 97.3548387,59.3855422 Z M127.548387,69.4698795 L130.241331,66.1084337 L142.086022,66.1084337 L142.086022,69.4698795 L127.548387,69.4698795 Z M165.790062,90.7590361 L147.45725,90.7590361 C146.962152,90.7590361 146.55914,90.3275588 146.55914,89.7974929 L146.55914,87.3975904 L166.688172,87.3975904 L166.688172,89.7974929 C166.688172,90.3275588 166.285159,90.7590361 165.790062,90.7590361 Z M192.181265,82.9156627 L168.924731,82.9156627 L168.924731,79.5542169 L194.645161,79.5542169 L194.645161,80.0950142 C194.645161,81.6501772 193.540368,82.9156627 192.181265,82.9156627 Z" id="devices" fill="#D9DC58"></path>
                <g id="laptop" transform="translate(0.000000, 39.000000)">
                    <g id="Group-4">
                        <mask id="mask-2" fill="white">
                            <use xlink:href="#path-1"></use>
                        </mask>
                        <g id="Clip-2"></g>
                        <path d="M63.5436191,34.8726134 C63.5436191,35.8101279 64.3049199,36.5701541 65.2438164,36.5701541 C66.1825586,36.5701541 66.9438594,35.8101279 66.9438594,34.8726134 L66.9438594,9.2317064 C66.9438594,8.29403779 66.1825586,7.53401163 65.2438164,7.53401163 L13.7561836,7.53401163 C12.8174414,7.53401163 12.0561406,8.29403779 12.0561406,9.2317064 L12.0561406,34.8726134 C12.0561406,35.8101279 12.8174414,36.5701541 13.7561836,36.5701541 C14.6950801,36.5701541 15.4563809,35.8101279 15.4563809,34.8726134 L15.4563809,10.9294012 L63.5436191,10.9294012 L63.5436191,34.8726134" id="Fill-1" fill="#D9DC58" mask="url(#mask-2)"></path>
                        <path d="M75.9396758,45.4622907 C75.9396758,47.9337238 73.9261016,49.9443343 71.4511797,49.9443343 L7.54882031,49.9443343 C5.07389844,49.9443343 3.06032422,47.9337238 3.06032422,45.4622907 L3.06032422,43.9907703 L29.8158652,43.9907703 C30.4773359,46.2233953 32.5500059,47.8569971 34.9973086,47.8569971 L44.0023828,47.8569971 C46.4498398,47.8569971 48.5225098,46.2232413 49.1839805,43.9907703 L75.9396758,43.9907703 L75.9396758,45.4622907 Z M8.06185742,5.28243605 C8.06185742,4.32504651 8.84213672,3.5459157 9.8009375,3.5459157 L69.1987539,3.5459157 C70.1578633,3.5459157 70.937834,4.32504651 70.937834,5.28243605 L70.937834,40.9351047 L47.9167402,40.9351047 C47.8082695,40.931407 47.6964043,40.9408052 47.5853105,40.9622209 C46.865207,41.1005756 46.3446094,41.7301047 46.3446094,42.4623983 C46.3446094,43.7521163 45.294002,44.8011773 44.0025371,44.8011773 L34.9974629,44.8011773 C33.7058437,44.8011773 32.6553906,43.7521163 32.6553906,42.4623983 C32.6553906,41.6068488 31.9454707,40.9166163 31.0897402,40.9347965 L8.06185742,40.9347965 L8.06185742,5.28243605 Z M77.4698379,40.9351047 L74.3383828,40.9351047 L74.3383828,5.28243605 C74.3383828,2.4527907 72.0327246,0.150680233 69.1990625,0.150680233 L9.8009375,0.150680233 C6.9669668,0.150680233 4.66161719,2.4527907 4.66161719,5.28243605 L4.66161719,40.9351047 L1.53016211,40.9351047 C0.684923828,40.9351047 0,41.6190203 0,42.4628605 L0,45.4622907 C0,49.6186308 3.38635352,53 7.54882031,53 L71.4510254,53 C75.6134922,53 78.9998457,49.6186308 78.9998457,45.4622907 L78.9998457,42.4628605 C79,41.6190203 78.3150762,40.9351047 77.4698379,40.9351047 L77.4698379,40.9351047 Z" id="Fill-3" fill="#D9DC58" mask="url(#mask-2)"></path>
                    </g>
                    <path d="M42.4699898,19.089176 C43.1766701,18.3826657 43.1766701,17.2366804 42.4699898,16.5300059 C41.7631452,15.8233314 40.6176432,15.8233314 39.9106344,16.5300059 L28.5300102,27.9108651 C27.8233299,28.6175396 27.8233299,29.7633607 28.5300102,30.4700352 C28.8834325,30.8234545 29.346396,31 29.8095237,31 C30.2726514,31 30.7356148,30.8232903 31.0890371,30.4700352 L42.4699898,19.089176" id="Fill-5" fill="#D9DC58"></path>
                    <path d="M46.9687014,23.5199368 L42.5199551,27.9686874 C41.8266816,28.6619364 41.8266816,29.7862502 42.5199551,30.4798215 C42.8667529,30.8266072 43.3212,31 43.775647,31 C44.230094,31 44.6843799,30.8266072 45.0311778,30.4798215 L49.4799241,26.0312321 C50.1733586,25.3378219 50.1733586,24.213508 49.4799241,23.5199368 C48.7863283,22.8266877 47.6622971,22.8266877 46.9687014,23.5199368" id="Fill-6" fill="#D9DC58"></path>
                </g>
            </g>
        </g>
    </g>
</svg>

<svg width="198" height="93" viewBox="0 0 198 93" xmlns="http://www.w3.org/2000/svg" xmlns:xlink="http://www.w3.org/1999/xlink"><title>800AD539-4DB1-4290-8DD7-16027C10BA18</title><defs><path id="a" d="M.01 53V.15H79V53z"/></defs><g fill="none" fill-rule="evenodd"><path d="M193.865 32.513V7.316c0-4.034-3.294-7.316-7.341-7.316H101.34C97.292 0 94 3.282 94 7.316v51.33c0 4.034 3.293 7.316 7.34 7.316h24.142l-2.764 2.965h-4.14c-.942 0-1.705.76-1.705 1.699 0 .938.763 1.699 1.704 1.699h23.714v16.383c0 2.367 1.932 4.292 4.306 4.292h18.322c2.375 0 4.306-1.925 4.306-4.292v-3.45h22.938c3.218 0 5.837-2.612 5.837-5.822V38.08c0-2.62-1.744-4.839-4.135-5.568zm.78 6.163v.54h-39.14v-.54c0-1.555 1.09-2.82 2.428-2.82h34.287c1.337 0 2.425 1.265 2.425 2.82zm-29.63 14.386h-9.51V42.578h39.14v33.615h-25.33v-18.84a4.3 4.3 0 0 0-4.3-4.29zm1.673 6.324H146.56v-2.4c0-.53.402-.962.898-.962h18.333c.495 0 .898.432.898.962v2.4zm23.484-50.422V32.44h-32.548c-3.211 0-5.825 2.638-5.825 5.88v14.494h-5.376c-2.367 0-4.293 1.941-4.295 4.33H97.355V8.964h92.817zm-43.613 72.831h20.13V61.627h-20.13v20.168zM100.871 3.361h84.667c1.547 0 2.884.918 3.516 2.241h-91.7c.634-1.323 1.97-2.24 3.517-2.24zm-3.516 56.025h44.731v3.361h-41.078c-1.652 0-3.067-1.392-3.653-3.361zm30.193 10.084l2.693-3.362h11.845v3.362h-14.538zm38.242 21.289h-18.333c-.495 0-.898-.431-.898-.962v-2.4h20.13v2.4c0 .53-.404.962-.899.962zm26.391-7.843h-23.256v-3.362h25.72v.541c0 1.555-1.105 2.82-2.464 2.82z" fill="#D9DC58"/><g transform="translate(0 39)"><mask id="b" fill="#fff"><use xlink:href="#a"/></mask><path d="M63.544 34.873c0 .937.76 1.697 1.7 1.697.939 0 1.7-.76 1.7-1.697V9.232c0-.938-.761-1.698-1.7-1.698H13.756c-.939 0-1.7.76-1.7 1.698v25.64c0 .938.761 1.698 1.7 1.698.94 0 1.7-.76 1.7-1.697V10.929h48.088v23.944" fill="#D9DC58" mask="url(#b)"/><path d="M75.94 45.462a4.49 4.49 0 0 1-4.489 4.482H7.55a4.49 4.49 0 0 1-4.489-4.482v-1.471h26.756a5.411 5.411 0 0 0 5.181 3.866h9.005a5.411 5.411 0 0 0 5.182-3.866H75.94v1.471zM8.062 5.282c0-.957.78-1.736 1.739-1.736h59.398a1.74 1.74 0 0 1 1.739 1.736v35.653H47.917a1.528 1.528 0 0 0-1.572 1.527c0 1.29-1.051 2.34-2.342 2.34h-9.006a2.343 2.343 0 0 1-2.342-2.34c0-.855-.71-1.545-1.565-1.527H8.062V5.282zM77.47 40.935h-3.132V5.282A5.141 5.141 0 0 0 69.2.151H9.801a5.141 5.141 0 0 0-5.14 5.131v35.653h-3.13A1.53 1.53 0 0 0 0 42.463v3C0 49.618 3.386 53 7.549 53H71.45c4.163 0 7.55-3.381 7.55-7.538v-3c0-.843-.685-1.527-1.53-1.527z" fill="#D9DC58" mask="url(#b)"/></g><path d="M42.47 58.09a1.81 1.81 0 1 0-2.56-2.56L28.53 66.91a1.81 1.81 0 0 0 2.559 2.56L42.47 58.09m4.499 4.43l-4.449 4.449a1.776 1.776 0 0 0 2.511 2.51l4.449-4.448a1.776 1.776 0 0 0-2.511-2.511" fill="#D9DC58"/></g></svg>
